contributed-vectors/trebleshot.svg

<svg width="192" height="192" viewBox="0 0 192 192" fill="none" xmlns="http://www.w3.org/2000/svg">
<path d="M96 184C144.601 184 184 144.601 184 96C184 47.3989 144.601 8 96 8C47.3989 8 8 47.3989 8 96C8 144.601 47.3989 184 96 184Z" fill="#98DC9A"/>
<path d="M127.656 66.4265C125.283 66.6342 123.124 67.7803 121.135 69.8604C119.201 71.8089 118.314 74.0052 117.996 77.4524C117.704 80.6274 118.347 82.9393 120.172 85.4218C122.38 88.4026 124.288 89.5199 127.967 89.9996L131.138 90.4256L130.556 96.2723C130.05 101.302 129.802 102.604 128.539 105.631C126.118 111.467 121.807 116.92 116.921 120.252L114.635 121.843L113.678 119.681C111.574 114.65 109.389 112.817 107.569 114.456C106.452 115.438 106.576 116.413 108.118 119.186C110.254 122.938 110.728 125.69 110.023 130.562C109.351 135.07 109.615 135.923 111.776 136.151C112.836 136.262 113.2 136.026 113.83 134.764C114.206 133.934 114.695 131.879 114.849 130.2L115.133 127.116L117.293 125.97C122.608 123.096 128.561 116.534 131.723 110.089C134.364 104.643 135.19 101.249 135.596 94.056L136.012 87.6881L137.315 86.0853C141.935 80.5273 140.389 71.2962 134.244 67.8542C132.293 66.7325 129.817 66.1965 127.656 66.4265Z" fill="white"/>
<path d="M60.5182 79.0115C61.9449 81.0512 64.0007 82.3985 66.7047 83.0943C69.2753 83.8103 71.485 83.4457 74.3814 81.8995C77.0492 80.4754 78.5364 78.6629 79.5294 75.688C80.7135 72.1018 80.5822 69.778 79.0046 66.1891L77.655 63.0895L82.5903 60.5059C86.8396 58.2885 88.0019 57.8209 91.0688 57.3552C96.9739 56.444 103.582 57.4494 108.818 60.1045L111.293 61.33L110.091 63.3466C107.23 67.9299 106.941 70.8851 109.207 71.6619C110.578 72.1525 111.283 71.5213 112.657 68.6488C114.489 64.7168 116.415 62.8231 120.645 60.8706C124.57 59.0809 125.104 58.3885 124.134 56.3084C123.659 55.2888 123.278 55.0846 121.945 55.1852C121.088 55.2862 119.202 55.9366 117.791 56.6893L115.2 58.0727L113.144 56.7253C108.043 53.4385 99.6829 51.5345 92.9019 52.0983C87.1875 52.6021 84.063 53.6588 78.1555 57.1179L72.896 60.1292L70.9345 59.8011C64.0789 58.5712 57.5976 64.8832 58.1434 72.2828C58.2936 74.6473 59.1866 77.1757 60.5182 79.0115Z" fill="white"/>
<path d="M102.219 132.562C103.175 130.229 103.258 127.65 102.492 124.789C101.808 122.043 100.423 120.164 97.7386 118.228C95.2664 116.445 93.0599 115.953 90.1515 116.494C86.652 117.158 84.827 118.424 82.6855 121.662L80.8298 124.445L76.2977 121.122C72.4013 118.256 71.4485 117.404 69.5591 114.778C65.9092 109.727 63.4717 103.077 63.0519 96.8934L62.8293 93.9848L65.0612 94.1106C70.1976 94.5175 72.7428 93.3303 72.2584 90.8374C71.9821 89.319 71.1214 88.973 68.1086 89.1085C64.0087 89.3393 61.5204 88.4789 57.849 85.5012C54.4601 82.7272 53.634 82.5711 52.4201 84.4986C51.825 85.4435 51.8465 85.8987 52.5851 87.0909C53.0895 87.8394 54.5474 89.2757 55.8542 90.2182L58.2557 91.9503L58.1727 94.5286C58.0129 100.899 60.5824 109.622 64.3812 115.66C67.6057 120.734 70.0042 123.123 75.7271 126.921L80.7666 130.336L81.466 132.324C83.8429 139.315 92.1686 142.242 97.917 138.088C99.7658 136.784 101.382 134.707 102.219 132.562Z" fill="white"/>
</svg>

<svg xmlns="http://www.w3.org/2000/svg" width="192" height="192" fill="none"><path fill="#98DC9A" d="M96 184c48.601 0 88-39.399 88-88S144.601 8 96 8 8 47.399 8 96s39.399 88 88 88Z"/><path fill="#fff" d="M127.656 66.427c-2.373.207-4.532 1.353-6.521 3.433-1.934 1.949-2.821 4.145-3.139 7.592-.292 3.175.351 5.487 2.176 7.97 2.208 2.98 4.116 4.098 7.795 4.578l3.171.426-.582 5.846c-.506 5.03-.754 6.332-2.017 9.359-2.421 5.836-6.732 11.289-11.618 14.621l-2.286 1.591-.957-2.162c-2.104-5.031-4.289-6.864-6.109-5.225-1.117.982-.993 1.957.549 4.73 2.136 3.752 2.61 6.504 1.905 11.376-.672 4.508-.408 5.361 1.753 5.589 1.06.111 1.424-.125 2.054-1.387.376-.83.865-2.885 1.019-4.564l.284-3.084 2.16-1.146c5.315-2.874 11.268-9.436 14.43-15.881 2.641-5.446 3.467-8.84 3.873-16.033l.416-6.368 1.303-1.603c4.62-5.558 3.074-14.789-3.071-18.23-1.951-1.123-4.427-1.659-6.588-1.428ZM60.518 79.011c1.427 2.04 3.483 3.388 6.187 4.083 2.57.716 4.78.352 7.676-1.194 2.668-1.425 4.155-3.237 5.148-6.212 1.184-3.586 1.053-5.91-.524-9.499l-1.35-3.1 4.935-2.583c4.25-2.218 5.412-2.685 8.479-3.15 5.905-.912 12.513.093 17.749 2.748l2.475 1.226-1.202 2.017c-2.861 4.583-3.15 7.538-.884 8.315 1.371.49 2.076-.14 3.45-3.013 1.832-3.932 3.758-5.826 7.988-7.778 3.925-1.79 4.459-2.483 3.489-4.563-.475-1.02-.856-1.223-2.189-1.123-.857.101-2.743.752-4.154 1.504l-2.591 1.384-2.056-1.348c-5.101-3.287-13.461-5.19-20.242-4.627-5.715.504-8.839 1.56-14.746 5.02l-5.26 3.011-1.962-.328c-6.855-1.23-13.336 5.082-12.79 12.482.15 2.364 1.043 4.893 2.374 6.728ZM102.219 132.562c.956-2.333 1.039-4.912.273-7.773-.684-2.746-2.069-4.625-4.753-6.561-2.473-1.783-4.68-2.275-7.588-1.734-3.499.664-5.324 1.93-7.465 5.168l-1.856 2.783-4.532-3.323c-3.897-2.866-4.85-3.718-6.739-6.344-3.65-5.051-6.087-11.701-6.507-17.885l-.223-2.908 2.232.126c5.137.406 7.682-.78 7.197-3.274-.276-1.518-1.137-1.864-4.15-1.728-4.1.23-6.588-.63-10.259-3.608-3.389-2.774-4.215-2.93-5.429-1.002-.595.945-.574 1.4.165 2.592.505.748 1.962 2.185 3.27 3.127l2.4 1.732-.082 2.579c-.16 6.37 2.41 15.093 6.208 21.131 3.225 5.074 5.623 7.463 11.346 11.261l5.04 3.415.699 1.988c2.377 6.991 10.703 9.918 16.451 5.764 1.849-1.304 3.465-3.381 4.302-5.526Z"/></svg>
